X:1
%
T:Now or never [2]
M:6/8
L:1/8
R:Country Dance Tune
B:John Walsh – Caledonian Country Dances vol. II  (1737, No. 343, p. 83)
Z:AK/Fiddler’s Companion
K:C
c2c BAG|ABc dBG|cdc BAG|AF^F G3:|
|:c2c e2g|f2e d2c|c2c e2f|g2f g3|c2c e2g|
f2e d2c|cac BgB|ABc dBG|cdc BAG|A2B c3:|

